[
	(
		'suite': "*",
		'test': "*",
	),
	(
		'suite': "TestBuffer_Server",
		'test': "*",
		'skip': "true",
		'skipReason': "Requires server",
	),
	(
		'suite': "TestBus",
		'test': "*",
		'skip': "true",
		'skipReason': "Requires server",
	),
	(
		'suite': "TestSynthAudioMapping",
		'test': "*",
		'skip': "true",
		'skipReason': "Requires server",
	),
	(
		'suite': "TestCoreUGens",
		'test': "*",
		'skip': "true",
		'skipReason': "Requires server",
	),
	(
		'suite': "TestDoneActions",
		'test': "*",
		'skip': "true",
		'skipReason': "Requires server",
	),
	(
		'suite': "TestEnvGen_server",
		'test': "*",
		'skip': "true",
		'skipReason': "Requires server",
	),
	(
		'suite': "TestFilterUGens",
		'test': "*",
		'skip': "true",
		'skipReason': "Requires server",
	),
	(
		'suite': "TestFunction",
		'test': "test_plot",
		'skip': "true",
		'skipReason': "Requires server",
	),
	(
		'suite': "TestIndexUGenRates",
		'test': "*",
		'skip': "true",
		'skipReason': "Requires server",
	),
	(
		'suite': "TestIOUGens",
		'test': "test_copy_nodeMapIsCopied",
		'skip': "true",
		'skipReason': "Requires server",
	),
	(
		'suite': "TestMixedBundle_Server",
		'test': "*",
		'skipReason': "Requires server",
		'skip': "true",
	),
	(
		'suite': "TestNetAddr",
		'test': "*",
		'skip': "true",
		'skipReason': "Requires server",
	),
	(
		'suite': "TestNode_Server",
		'test': "*",
		'skip': "true",
		'skipReason': "Requires server",
	),
	(
		'suite': "TestNodeProxy_Server",
		'test': "*",
		'skipReason': "Requires server",
		'skip': "true",
	),
	(
		'suite': "TestNodeProxyBusMapping",
		'test': "*",
		'skipReason': "Requires server",
		'skip': "true",
	),
	(
		'suite': "TestNodeProxy",
		'test': "test_control_fade",
		'skipReason': "Requires server",
		'skip': "true",
	),
	(
		'suite': "TestNodeProxy",
		'test': "test_asCode_playState",
		'skipReason': "Requires server",
		'skip': "true",
	),
	(
		'suite': "TestNodeProxyRoles",
		'test': "*",
		'skipReason': "Requires server",
		'skip': "true",
	),
	(
		'suite': "TestOSCBundle",
		'test': "*",
		'skip': "true",
		'skipReason': "Requires server",
	),
	(
		'suite': "TestPanAz",
		'test': "*",
		'skip': "true",
		'skipReason': "Requires server",
	),
	(
		'suite': "TestProxySpace",
		'test': "*",
		'skip': "true",
		'skipReason': "Requires server",
	),
	(
		'suite': "TestPV_ChainUGen",
		'test': "*",
		'skip': "true",
		'skipReason': "Requires server",
	),

	(
		'suite': "TestQuery",
		'test': "*",
		'skip': "true",
		'skipReason': "Requires server",
	),
	(
		'suite': "TestSanitize",
		'test': "*",
		'skip': "true",
		'skipReason': "Requires server",
	),
	(
		'suite': "TestServer_boot",
		'test': "*",
		'skip': "true",
		'skipReason': "Requires server",
	),
	(
		'suite': "TestServer_clientID_booted",
		'test': "*",
		'skip': "true",
		'skipReason': "Requires server",
	),
	(
		'suite': "TestServer_GUI",
		'test': "*",
		'skip': "true",
		'skipReason': "Requires server",
	),
	(
		'suite': "TestServer_ServerGUI",
		'test': "*",
		'skip': "true",
		'skipReason': "Requires server",
	),
	(
		'suite': "TestServer_SynthDefVersion1",
		'test': "*",
		'skip': "true",
		'skipReason': "Requires server",
	),
	(
		'suite': "TestServer",
		'test': "*",
		'skip': "true",
		'skipReason': "Requires server",
	),
	(
		'suite': "TestSoundFile_Server",
		'test': "*",
		'skip': "true",
		'skipReason': "Requires server",
	),
	(
		'suite': "TestSynthMapping",
		'test': "*",
		'skip': "true",
		'skipReason': "Requires server",
	),
	(
		'suite': "TestTWindex",
		'test': "*",
		'skip': "true",
		'skipReason': "Requires server",
	),
	(
		'suite': "TestUGen_Duty",
		'test': "*",
		'skip': "true",
		'skipReason': "Requires server",
	),
	(
		'suite': "TestUGen_RTAlloc",
		'test': "*",
		'skip': "true",
		'skipReason': "Requires server",
	),
	(
		'suite': "TestUnitTest",
		'test': "test_bootServer",
		'skip': "true",
		'skipReason': "Requires server",
	),
	(
		'suite': "TestVolume",
		'test': "*",
		'skip': "true",
		'skipReason': "Requires server",
	), 
	(
		'suite': "TestMixedBundleTester",
		'test': "*",
		'skip': "true",
		'skipReason': "Requires server",
	), 
	(
		'suite': "TestLinkClock",
		'test': "*",
		'skip': "true",
		'skipReason': "Requires server",
	),
	(
		'suite': "TestIOUGens",
		'test': "*",
		'skip': "true",
		'skipReason': "Requires server",
	),
	(
		'suite': "TestThreadReschedule",
		'test': "*",
		'skip': "true",
		'skipReason': "Test is broken - see https://github.com/supercollider/supercollider/issues/5360",
	),
]
