s = Server.default;

s.options.numAnalogInChannels = 8;
s.options.numAnalogOutChannels = 8;
s.options.numDigitalChannels = 16;

s.options.blockSize = 16;
s.options.numInputBusChannels = 2;
s.options.numOutputBusChannels = 2;

s.options.postln;

s.boot;

